public/paper.svg

<?xml version="1.0" encoding="UTF-8" standalone="no"?>
<!DOCTYPE svg PUBLIC "-//W3C//DTD SVG 1.1//EN" "http://www.w3.org/Graphics/SVG/1.1/DTD/svg11.dtd">
<!-- Created with Vectornator (http://vectornator.io/) -->
<svg height="100%" stroke-miterlimit="10" style="fill-rule:nonzero;clip-rule:evenodd;stroke-linecap:round;stroke-linejoin:round;" version="1.1" viewBox="0 0 200 100" width="100%" xml:space="preserve" xmlns="http://www.w3.org/2000/svg" xmlns:vectornator="http://vectornator.io" xmlns:xlink="http://www.w3.org/1999/xlink">
<defs/>
<g id="Layer-1" vectornator:layerName="Layer 1">
<path d="M13.1947 52.3883L82.6107 15.0224C82.6107 15.0224 96.8967 24.2874 123.52 32.6503C150.144 41.0132 189.105 48.4739 189.105 48.4739L128.262 90.2286C128.262 90.2286 95.2227 82.8164 66.4559 73.3563C37.689 63.8963 13.1947 52.3883 13.1947 52.3883Z" fill="#797979" fill-opacity="0.713484" fill-rule="nonzero" opacity="1" stroke="none" vectornator:layerName="Curve 1"/>
<path d="M10.8955 50.0432L77.4065 9.77143C77.4065 9.77143 92.1785 20.4101 119.528 29.4994C146.878 38.5888 186.805 46.1289 186.805 46.1289L125.963 87.8835C125.963 87.8835 89.1027 80.341 60.3359 70.8809C31.569 61.4208 10.8955 50.0432 10.8955 50.0432Z" fill="#ffffff" fill-rule="nonzero" opacity="1" stroke="none" vectornator:layerName="Curve 2"/>
<g opacity="1" vectornator:layerName="Group 1">
<path d="M29.469 51.0052C29.469 44.0712 29.0867 52.5729 33.3954 49.1006C35.0033 47.8049 32.9333 42.617 34.9058 43.381C37.0158 44.1982 49.5795 36.7783 52.4225 34.3525" fill="none" opacity="1" stroke="#757373" stroke-linecap="round" stroke-linejoin="round" stroke-width="0.5" vectornator:layerName="Curve 3"/>
<path d="M43.0967 58.2408C43.0967 58.7386 43.0816 57.2397 42.9748 56.7517C42.791 55.9116 42.3449 55.0815 41.9326 54.317C41.7917 54.0556 41.2525 53.3336 41.4481 53.5635C42.0826 54.3088 44.7989 56.6068 46.0769 56.1709C47.6135 55.6469 46.4434 52.637 47.1255 52.3692C47.995 52.0279 49.7133 53.6829 49.9171 52.8368C50.1019 52.0694 48.5595 50.6412 49.4082 50.5257C50.5345 50.3724 54.8212 50.6581 55.5067 49.4684C55.9438 48.71 53.885 45.5456 55.1132 44.9088C56.2023 44.3442 56.9569 47.0441 56.9569 43.9617" fill="none" opacity="1" stroke="#757373" stroke-linecap="round" stroke-linejoin="round" stroke-width="0.5" vectornator:layerName="Curve 4"/>
<path d="M61.1158 39.9992C61.757 39.5758 60.8594 37.2046 61.2556 37.831C63.1137 40.7684 63.4591 38.3355 65.078 37.4498C66.0012 36.9447 67.1015 37.8382 67.9215 36.9167C69.4515 35.1977 70.0448 32.0874 71.9487 30.6461C72.3845 30.3162 73.2962 30.8611 73.8022 30.7354C75.9351 30.2056 79.1828 27.8462 80.3478 26.2428" fill="none" opacity="1" stroke="#757373" stroke-linecap="round" stroke-linejoin="round" stroke-width="0.5" vectornator:layerName="Curve 5"/>
<path d="M54.8635 62.2024C54.8635 61.5923 54.8671 60.9821 54.8635 60.372C54.847 57.5107 56.1518 61.0466 57.4532 59.468C59.332 57.1889 55.9227 51.9822 60.9793 54.1013" fill="none" opacity="1" stroke="#757373" stroke-linecap="round" stroke-linejoin="round" stroke-width="0.5" vectornator:layerName="Curve 6"/>
<path d="M67.3793 49.9629C66.5676 49.9629 64.6718 48.6337 65.4802 48.5669C66.807 48.4573 68.9716 49.3813 70.1974 48.61C71.9634 47.499 70.7317 44.379 72.801 44.379" fill="none" opacity="1" stroke="#757373" stroke-linecap="round" stroke-linejoin="round" stroke-width="0.5" vectornator:layerName="Curve 7"/>
<path d="M79.7869 41.4018C79.7869 42.1175 80.0603 39.905 79.7329 39.2551C79.4628 38.7191 81.5867 39.9081 81.6651 39.3222C81.8577 37.8813 81.4285 34.7681 82.7864 33.767C85.8944 31.4758 96.2508 33.0167 96.2508 27.664" fill="none" opacity="1" stroke="#757373" stroke-linecap="round" stroke-linejoin="round" stroke-width="0.5" vectornator:layerName="Curve 8"/>
<path d="M69.5783 61.0189C69.5783 60.5706 69.5783 60.1223 69.5783 59.674C69.5783 59.3136 69.5783 58.9531 69.5783 58.5927C69.5783 54.8114 69.7076 59.0634 71.9779 57.8883C73.141 57.2863 72.7252 54.7385 73.3799 54.4223C73.671 54.2818 75.4211 57.092 76.3881 56.339C76.6422 56.1412 76.7105 55.6547 76.7334 55.403C77.0212 52.2353 78.7971 52.0838 79.5934 49.4693C79.6694 49.2196 79.7457 48.9699 79.8218 48.7202" fill="none" opacity="1" stroke="#757373" stroke-linecap="round" stroke-linejoin="round" stroke-width="0.5" vectornator:layerName="Curve 9"/>
<path d="M88.5917 45.7861C88.5917 44.9465 88.5917 44.1069 88.5917 43.2673C88.5917 40.4085 89.9251 43.0267 91.7586 42.416C92.3181 42.2297 92.1353 40.8538 92.6305 40.8491C93.197 40.8438 93.5453 41.6726 94.1303 41.5934C95.0471 41.4693 94.6743 39.0179 94.8505 38.4453C94.9938 37.9793 97.1883 37.8996 97.5709 37.7936C98.7672 37.4622 99.4449 36.4299 100.377 35.746" fill="none" opacity="1" stroke="#757373" stroke-linecap="round" stroke-linejoin="round" stroke-width="0.5" vectornator:layerName="Curve 10"/>
<path d="M77.5274 69.1269C76.8737 69.4657 76.0389 67.8249 76.5069 67.2869C77.4456 66.208 78.4727 68.5718 78.9803 66.0275C79.262 64.6151 79.8336 61.759 81.0148 61.1896C81.7058 60.8564 84.5689 63.6341 85.1973 64.157" fill="none" opacity="1" stroke="#757373" stroke-linecap="round" stroke-linejoin="round" stroke-width="0.5" vectornator:layerName="Curve 11"/>
<path d="M90.7217 58.2875C90.7217 57.8408 90.6792 57.3633 90.5036 56.9417C89.736 55.0986 92.4426 56.9831 93.0433 55.875C93.8232 54.4362 92.4372 51.3401 94.0114 52.9811C94.1642 53.1404 94.2086 51.3999 94.292 51.3584C95.6659 50.6753 97.9735 51.4739 99.5397 50.6305" fill="none" opacity="1" stroke="#757373" stroke-linecap="round" stroke-linejoin="round" stroke-width="0.5" vectornator:layerName="Curve 12"/>
<path d="M102.078 45.5006C102.078 44.4783 102.078 43.4561 102.078 42.4338C102.078 42.3914 102.054 42.27 102.078 42.3065C104.365 45.8419 105.78 41.2669 107.229 39.9103C108.436 38.7799 110.417 38.8494 111.374 37.1286" fill="none" opacity="1" stroke="#757373" stroke-linecap="round" stroke-linejoin="round" stroke-width="0.5" vectornator:layerName="Curve 13"/>
</g>
</g>
</svg>

<svg xmlns="http://www.w3.org/2000/svg" xmlns:vectornator="http://vectornator.io" xml:space="preserve" stroke-miterlimit="10" style="fill-rule:nonzero;clip-rule:evenodd;stroke-linecap:round;stroke-linejoin:round" viewBox="0 0 200 100"><g vectornator:layerName="Layer 1"><path vectornator:layerName="Curve 1" fill="#797979" fill-opacity=".713" d="M13.195 52.388 82.61 15.022s14.286 9.265 40.909 17.628c26.624 8.363 65.585 15.824 65.585 15.824l-60.843 41.755s-33.04-7.413-61.806-16.873c-28.767-9.46-53.261-20.968-53.261-20.968Z"/><path vectornator:layerName="Curve 2" fill="#fff" d="m10.896 50.043 66.51-40.272s14.772 10.64 42.122 19.728c27.35 9.09 67.277 16.63 67.277 16.63l-60.842 41.755S89.103 80.34 60.336 70.88c-28.767-9.46-49.44-20.838-49.44-20.838Z"/><g vectornator:layerName="Group 1" fill="none" stroke="#757373" stroke-width=".5"><path vectornator:layerName="Curve 3" d="M29.469 51.005c0-6.934-.382 1.568 3.926-1.904 1.608-1.296-.462-6.484 1.51-5.72 2.11.817 14.675-6.603 17.517-9.029"/><path vectornator:layerName="Curve 4" d="M43.097 58.24c0 .499-.015-1-.122-1.488-.184-.84-.63-1.67-1.042-2.435-.141-.261-.68-.983-.485-.754.635.746 3.35 3.044 4.629 2.608 1.537-.524.366-3.534 1.049-3.802.869-.341 2.587 1.314 2.791.468.185-.768-1.358-2.196-.509-2.311 1.127-.154 5.413.132 6.099-1.058.437-.758-1.622-3.922-.394-4.56 1.09-.564 1.844 2.136 1.844-.946"/><path vectornator:layerName="Curve 5" d="M61.116 40c.641-.424-.257-2.795.14-2.169 1.858 2.937 2.203.505 3.822-.381.923-.505 2.023.388 2.843-.533 1.53-1.72 2.124-4.83 4.028-6.27.436-.33 1.347.214 1.853.088 2.133-.53 5.38-2.889 6.546-4.492"/><path vectornator:layerName="Curve 6" d="M54.864 62.202c0-.61.003-1.22 0-1.83-.017-2.861 1.288.675 2.59-.904 1.878-2.28-1.531-7.486 3.525-5.367"/><path vectornator:layerName="Curve 7" d="M67.38 49.963c-.812 0-2.708-1.33-1.9-1.396 1.327-.11 3.492.814 4.717.043 1.766-1.111.535-4.231 2.604-4.231"/><path vectornator:layerName="Curve 8" d="M79.787 41.402c0 .715.273-1.497-.054-2.147-.27-.536 1.854.653 1.932.067.193-1.44-.237-4.554 1.121-5.555 3.108-2.291 13.465-.75 13.465-6.103"/><path vectornator:layerName="Curve 9" d="M69.578 61.019v-2.426c0-3.782.13.47 2.4-.705 1.163-.602.747-3.15 1.402-3.466.291-.14 2.041 2.67 3.008 1.917.254-.198.322-.684.345-.936.288-3.168 2.064-3.32 2.86-5.934l.229-.749"/><path vectornator:layerName="Curve 10" d="M88.592 45.786v-2.519c0-2.859 1.333-.24 3.167-.851.56-.186.376-1.562.871-1.567.567-.005.915.824 1.5.744.917-.124.544-2.575.72-3.148.144-.466 2.338-.545 2.72-.651 1.197-.332 1.875-1.364 2.807-2.048"/><path vectornator:layerName="Curve 11" d="M77.527 69.127c-.653.339-1.488-1.302-1.02-1.84.939-1.079 1.966 1.285 2.473-1.26.282-1.412.854-4.268 2.035-4.837.69-.334 3.554 2.444 4.182 2.967"/><path vectornator:layerName="Curve 12" d="M90.722 58.288c0-.447-.043-.925-.218-1.346-.768-1.843 1.939.041 2.54-1.067.78-1.439-.607-4.535.967-2.894.153.16.198-1.581.281-1.623 1.374-.683 3.681.116 5.248-.727"/><path vectornator:layerName="Curve 13" d="M102.078 45.5v-3.066c0-.043-.024-.164 0-.127 2.287 3.535 3.702-1.04 5.151-2.397 1.207-1.13 3.188-1.06 4.145-2.781"/></g></g></svg>
